eleven/templates/component/navigation/tabs/icons/layout-row.svg

<?xml version="1.0" encoding="UTF-8"?>
<svg width="28px" height="26px" viewBox="0 0 28 26" version="1.1" xmlns="http://www.w3.org/2000/svg" xmlns:xlink="http://www.w3.org/1999/xlink">
    <!-- Generator: Sketch 43.1 (39012) - http://www.bohemiancoding.com/sketch -->
    <title>layout-row</title>
    <desc>Created with Sketch.</desc>
    <defs></defs>
    <g id="Page-1" stroke="none" stroke-width="1" fill="none" fill-rule="evenodd">
        <path d="M3.32143302,18 C2.69531521,18 2.14286,17.8214282 2.14286,17.6190477 L2.14286,4.285719 L25.714316,4.285719 L25.714316,18 L3.32143302,18 Z M25.714316,23.4722499 C25.714316,23.5249535 25.1618608,23.571457 24.535743,23.571457 L2.14286,23.571457 L2.14286,20 L25.714316,20 L25.714316,23.4722499 Z M27.857176,2.678575 C27.857176,1.205359 26.651817,0 25.178601,0 L2.678575,0 C1.205359,0 0,1.205359 0,2.678575 L0,23.035742 C0,24.508958 1.205359,25.714316 2.678575,25.714316 L25.178601,25.714316 C26.651817,25.714316 27.857176,24.508958 27.857176,23.035742 L27.857176,2.678575 Z" id="layout-row" fill="#000000" fill-rule="nonzero"></path>
    </g>
</svg>

<svg width="28" height="26" viewBox="0 0 28 26" xmlns="http://www.w3.org/2000/svg"><title>layout-row</title><path d="M3.321 18c-.626 0-1.178-.179-1.178-.381V4.286h23.571V18H3.321zm22.393 5.472c0 .053-.552.1-1.178.1H2.143V20h23.571v3.472zM27.857 2.68A2.686 2.686 0 0 0 25.18 0h-22.5A2.686 2.686 0 0 0 0 2.679v20.357a2.686 2.686 0 0 0 2.679 2.678h22.5a2.686 2.686 0 0 0 2.678-2.678V2.679z" fill="#000" fill-rule="nonzero"/></svg>
